X:1
T: Stewart's Lassies
C:Bruce Shawyer
R:Strathspey
Q:128
K:G
M:4/4
L:1/16
|:D2|G3B d3B dB3 B3G|c3e g3e BA3 A3D|G3B d3B dB3 B3G|dB3 A3B G6D2|
G3B d3B dB3 B3G|c3e g3e BA3 A3D|G3B d3B dB3 B3G|dB3 A3B G6d2|
cBAG G3D dB3 g3B|E3F G3e BA3 A3d|cBAG G3D dB3 g3B|dB3 A3B G6d2|
cBAG G3D dB3 g3B|E3F G3e BA3 A3d|G3B d3B dB3 B3G|dB3 A3B G6:|
